X: 236
%
T: Hoch Hey Johnny Lad
C:
O:Scotland
B:Keith Norman MacDonald : "The Skye collection of the best reels & strathspeys extant" : 1887
Z:Ralph Palmer
R:Reel
M:C|
L:1/8
K:A
A3 c TBABc | AFEF B/2B/2B TB2 | A3 c TBABc | AFEF A/2A/2A TA2 :: (e/2f/2g) ac TBABc |
(e/2f/2g) ae f/2f/2f Tf2 | [1 (e/2f/2g) ac TBABc | AFEF A/2A/2A A2 :| [2 (ef)ec BABc | AFEF A/2A/2A {/B}A2 |]
W:Sometimes played as Strathspey.


